src/images/icons/checkmark-square-fill.svg

<svg xmlns="http://www.w3.org/2000/svg" width="16" height="16" fill="none"><path fill="#00112C" d="M1.25 3.5C1.25 2.25736 2.25736 1.25 3.5 1.25H12.5C13.7426 1.25 14.75 2.25736 14.75 3.5V12.5C14.75 13.7426 13.7426 14.75 12.5 14.75H3.5C2.25736 14.75 1.25 13.7426 1.25 12.5V3.5ZM12.0608 6.00011L11.0001 4.93945L7.00023 8.93934L5.00011 6.93923L3.93945 7.99989L7.00011 11.0608L12.0608 6.00011Z"/></svg>

<svg xmlns="http://www.w3.org/2000/svg" fill="none" viewBox="0 0 16 16"><path fill="currentColor" d="M1.25 3.5c0-1.24 1-2.25 2.25-2.25h9c1.24 0 2.25 1 2.25 2.25v9c0 1.24-1 2.25-2.25 2.25h-9c-1.24 0-2.25-1-2.25-2.25zM12.06 6 11 4.94l-4 4-2-2L3.94 8 7 11.06z"/></svg>
